X:1
T:Title
%%score { 1 | 2 }
L:1/8
M:3/4
K:Db
V:1 treble nm="Grand Piano"
V:2 bass 
V:1
 z2 z2[Q:1/4=100] [FA]>[EG] | [EG]2 [DF]2 [Fd]>[Ac] | [Ac]2 B2 e>d | d3 c [CEG][CGB] | %4
[M:2/4] [DFA]4 |[M:1/4] [FA]>[EG] |[M:3/4] [A,EG]2 [A,DF]2 [Fd]>[Ac] | [Ac]2 B2 B>B | %8
 [=Ge]3 [FGd] [EGc][DGB] |[M:2/4] A4 |[M:1/4] A>A |[M:3/4] B2 B2 B>B | d2 c2 c>c | d3 c d[Be] | %14
[M:2/4] [=Af]4 |[M:1/4] [Af]>[AB] |[M:3/4] [=Gf]2 [Ge]2 [_Ge]>[GA] | [Fe]2 [Fd]2 cB | %18
 d3 F [CF]<[CE] |[M:2/4] D4 |] %20
V:2
 z2 z2 [D,A,]>[D,A,] | [D,A,]2 [D,A,]2 [D,A,]>[F,D] | [G,D]2[K:treble] [G,DG]2 [G,B,G]>[G,B,G] | %3
 [A,EG]3 [A,EG][K:bass] A,,A,, |[M:2/4] D,4 |[M:1/4] A,>A, |[M:3/4] D,2 D,2 [D,A,]>[F,D] | %7
 [G,D]2 [G,DG]2 [G,B,G]>[G,B,G] | [E,B,]3 E, E,E, |[M:2/4][K:treble] [A,C]4 | %10
[M:1/4] [A,CE]>[A,CE] |[M:3/4] [A,DF]2 [A,DF]2 [A,DF]>[A,DF] | [A,EG]2 [A,EG]2 [=A,EG]>[A,EG] | %13
 [B,DF]3 [B,DF] [B,DF][K:bass][G,B,] |[M:2/4] [F,C]4 |[M:1/4] [B,=D]>[B,D] | %16
[M:3/4] [E,E]2 [E,D]2 [A,C]>[A,C] | [D,D]2 [D,A,]2[K:treble] [=G,B,_F][G,B,F] | %18
 [A,F]3[K:bass] [A,D] [A,,A,]<[A,,G,] |[M:2/4] [D,F,]4 |] %20

